rospo-newyear-dark/symbolic/status/image-loading-symbolic.svg

<svg height="16" width="16" xmlns="http://www.w3.org/2000/svg"><g fill="#d3dae3"><path d="m2 2c-.554 0-1 .446-1 1v2h14v-2c0-.554-.446-1-1-1zm-1 9v2c0 .554.446 1 1 1h12c .554 0 1-.446 1-1v-2z" opacity=".3"/><path d="m5 8a2 2 0 0 1 -2 2 2 2 0 0 1 -2-2 2 2 0 0 1 2-2 2 2 0 0 1 2 2z"/><path d="m10 8a2 2 0 0 1 -2 2 2 2 0 0 1 -2-2 2 2 0 0 1 2-2 2 2 0 0 1 2 2z"/><path d="m15 8a2 2 0 0 1 -2 2 2 2 0 0 1 -2-2 2 2 0 0 1 2-2 2 2 0 0 1 2 2z"/></g></svg>

<svg xmlns="http://www.w3.org/2000/svg" width="16" height="16" version="1.1">
 <path style="opacity:0.3;fill:#d3dae3" d="M 2,2 C 1.446,2 1,2.446 1,3 V 5 H 15 V 3 C 15,2.446 14.554,2 14,2 Z M 1,11 V 13 C 1,13.554 1.446,14 2,14 H 14 C 14.554,14 15,13.554 15,13 V 11 Z"/>
 <path style="fill:#d3dae3" d="M 5,8 A 2,2 0 0 1 3,10 2,2 0 0 1 1,8 2,2 0 0 1 3,6 2,2 0 0 1 5,8 Z"/>
 <path style="fill:#d3dae3" d="M 10,8 A 2,2 0 0 1 8,10 2,2 0 0 1 6,8 2,2 0 0 1 8,6 2,2 0 0 1 10,8 Z"/>
 <path style="fill:#d3dae3" d="M 15,8 A 2,2 0 0 1 13,10 2,2 0 0 1 11,8 2,2 0 0 1 13,6 2,2 0 0 1 15,8 Z"/>
</svg>
